X:1
T:If Your Heart Keeps Right
T:If Your Heart Keeps Right
T:Bentley DeForest Ackley
T:Lizzie DeArmond, 1912
T:Public Domain Courtesy of the Cyber Hymnal™
T:Public Domain Courtesy of the Cyber Hymnal™
C:Bentley DeForest Ackley
Z:Public Domain
Z:Courtesy of the Cyber Hymnal™
%%score ( 1 2 ) ( 3 4 )
L:1/8
Q:1/4=100
M:4/4
K:C
V:1 treble 
V:2 treble 
V:3 bass 
V:4 bass 
V:1
 [CE][DF] | [EG]2 [Ec][FA] [EG][CE]C[B,D] | [CE]2 [DF]2 [EG]2 [EA][Ec] | %3
w: 1.~If the|dark sha- dows ga- ther as you|go a- long, Do not|
w: 2.~Is your|life just a tan- gle full of|toil and care? Smile a|
w: 3.~There are|blos- soms of glad- ness, ’neath the|win- ter’s snow. From the|
 [FB]2 [FB][Fc] [FB][FA][EG][DF] | [CE]2 [FA]2 [EG]2 [CE][DF] | [EG]2 [Ec][FA] [EG][CE]C[B,D] | %6
w: grieve for their com- ing; sing a|cheer- y song. There is|joy for the tak- ing; it will|
w: bit as you jour- ney, oth- ers’|bur- dens share. You’ll for-|get all your trou- bles, mak- ing|
w: gloom and the dark- ness come the|morn- ing glow. Nev- er|give up the bat- tle, you will|
 [CE]2 [DF]2 [EG]2 [EG][CE] | [B,D]2 [DG][DB] [Dd][DB][DG]D | [^CE]2 [=C^F]2 [B,G]2 || %9
w: soon be light. Ev- ery|cloud wears a rain- bow if your|heart keeps right.|
w: their lives bright. Skies will|grow blue and sun- ny, if your|heart keeps right.|
w: win the fight; Gain the|rest of the vic- tor, if your|heart keeps right.|
"^Refrain" [B,G][B,F] | [B,A]2 [B,G]2 [B,D]2 [B,G][B,^F] | [CA]2 [CG]2 [CE]2 [EG][Ec] | %12
w: |||
w: If your|heart keeps right, if your|heart keeps right, There’s a|
w: |||
 [FB]2 [FB]2 [FB][FA][EG][DF] | [CE]2 [CA]2 [CG]2 [CG][C^F] | [DA]2 [DG]2 [B,D]2 [B,G][B,^F] | %15
w: |||
w: song of glad- ness in the|dark- est night. If your|heart keeps right, if your|
w: |||
 [CA]2 [CG]2 !fermata![Cc]2 C[CD] | [CE][CG][CB][CA] [CG][Cc][CG][CF] | [CE]2 [B,D]2 [G,C]2 |] %18
w: |||
w: heart keeps right, Ev- ery|cloud will wear a rain- bow, if your|heart keeps right.|
w: |||
V:2
 x2 | x8 | x8 | x8 | x8 | x8 | x8 | x7 D | x6 || x2 | x8 | x8 | x8 | x8 | x8 | x6 C x | x8 | x6 |] %18
V:3
 [C,G,][C,G,] | [C,C]2 [C,G,][C,A,] [C,C][C,G,][E,G,]G, | [C,G,]2 [C,G,]2 [C,C]2 [C,C][C,G,] | %3
w: ~ ~|~ ~ ~ ~ ~ ~ ~|~ ~ ~ ~ ~|
 [D,G,]2 [D,G,][D,G,] G,[G,B,][G,C]G, | [C,G,]2 [C,C]2 [C,C]2 [C,G,][C,G,] | %5
w: ~ ~ ~ ~ ~ ~ ~|~ ~ ~ ~ ~|
 [C,C]2 [C,G,][C,A,] [C,C][C,G,][E,G,]G, | [C,G,]2 [C,G,]2 [C,C]2 [C,C][C,G,] | %7
w: ~ ~ ~ ~ ~ ~ ~|~ ~ ~ ~ ~|
 [D,G,]2 [B,,G,][G,,G,] [F,A,]G,[B,,G,][B,,G,] | [A,,G,]2 [D,A,]2 [G,,G,]2 || [G,,G,][G,,G,] | %10
w: ~ ~ ~ ~ ~ ~ ~|~ ~ ~||
 [G,,F,]2 [G,,F,]2 [G,,F,]2 [G,,F,][G,,F,] | [C,E,]2 [C,E,]2 [C,G,]2 [C,C][C,G,] | %12
w: ||
 [D,G,]2 [D,G,]2 [G,D][G,B,][G,C]G, | [C,G,]2 [C,F,]2 [C,E,]2 [C,E,][C,E,] | %14
w: ||
 [G,,F,]2 [G,,F,]2 [G,,F,]2 [G,,F,][G,,F,] | [C,E,]2 [C,E,]2 !fermata![E,,E,]2 E,,[E,,F,,] | %16
w: ||
 [G,,G,][G,,E,][^F,,^D,][F,,D,] [G,,E,][G,,E,][E,,B,,][E,,A,,] | [E,,G,,]2 [D,,F,,]2 [B,,,E,,]2 |] %18
w: ||
V:4
 x2 | x7 G, | x8 | x4 G, x G, x | x8 | x7 G, | x8 | x5 G, x2 | x6 || x2 | x8 | x8 | x7 G, | x8 | %14
 x8 | x6 E,, x | x8 | x6 |] %18

